X:1
T:Title
%%score { ( 1 3 ) | ( 2 4 ) }
L:1/8
Q:1/4=100
M:4/4
K:Bb
V:1 treble nm="Grand Piano"
V:3 treble 
V:2 bass 
V:4 bass 
V:1
 [DF]2 [DG]>[DA] [DB]2 [Ec]>[Fd] | z4 [F=d]4 | d2 c>=B c2 d>c | [DB]2 [=EA]>[EG] [_Ec]4 | %4
w: J.~Lincoln~Hall * * * * *||||
 [DF]2 [DG]>[DA] [DB]2 [Ec]>[Fd] | z4 [F=d]4[K:bass] | [=Ed]2 [Ec]>[EB] [EG]4 | d2 c>A [A,EF]4 | %8
w: ||||
 [DB]2 [DB]>[DB] [DB]2 [DF]>[DG] | A2 A>A A4 | z4 c4[K:bass] | [DB]2 [DB]>[DB] [B,DB]4 | %12
w: ||||
 [Fd]2 [Fd]>[Ec] [DB]2 [DF]>[DF] | G2 G>G [Ge]4 | %14
w: ||
[M:19/16] [Fd]/-[Fd]/-[Fd]/-[Fd]/-[Fd]-<[Fd][Ac]/-[Ac]/-[Ac]/-[Ac]/-[Ac]/-[Ac]-<[Ac][Ac] | %15
w: |
[M:4/4] [DFB]6 z2 |] %16
w: |
V:2
 [B,,F,]2 [F,,F,]2 [B,,F,]2 [F,,F,]2 | [B,,F,]2 [F,,F,]2 [B,,F,]2 F,,2 | %2
 [F,A,F]2 [F,A,E]>[F,_A,D] [F,=A,F]2 [F,A,F]>[F,A,E] | [C,B,]2 [C,B,]>[C,B,] [F,A,]4 | %4
 [B,,F,]2 [F,,F,]2 [B,,F,]2 [F,,F,]2 | [B,,F,]2 [F,,F,]2 [B,,F,]2 z2 | %6
 [C,B,]2 [C,B,]>[C,B,] [C,B,]4 | [F,A,E]2 [F,A,E]>[F,A,E] F,E,D,C, | %8
 [B,,B,]2 [B,,B,]>[B,,B,] [B,,B,]2 [B,,B,]>[B,,B,] | [F,CE]2 [F,CE]>[F,CE] [F,CE]4 | z4 [A,E]4 | %11
 [B,,B,]2 [B,,B,]>[B,,B,] B,,D,F,B, | [B,,B,]2 [B,,B,]>[B,,B,] [B,,B,]2 [B,,B,]>[B,,B,] | %13
 [E,B,E]2 [E,B,E]>[E,B,E] [C,C]4 | %14
[M:19/16] [F,B,]/-[F,B,]/-[F,B,]/-[F,B,]/-[F,B,]-<[F,B,][F,E]/-[F,E]/-[F,E]/-[F,E]/-[F,E]/-[F,E]-<[F,E][F,E] | %15
[M:4/4] [B,,B,]6 z2 |] %16
V:3
 x8 | [Ge]2 [Fd]>[=E_d] z2 F,2 | x8 | x8 | x8 | [Ge]2 [Fd]>[=E_d] z2[K:bass] [F,,F,]2 | x8 | x8 | %8
 x8 | x8 | c2 c>c z[K:bass] E,D,C, | x8 | x8 | x8 |[M:19/16] x19/2 |[M:4/4] x8 |] %16
V:4
 x8 | x8 | x8 | x8 | x8 | x8 | x8 | x8 | x8 | x8 | [F,A,E]2 [F,A,E]>[F,A,E] .F,2 z2 | x8 | x8 | %13
 x8 |[M:19/16] x19/2 |[M:4/4] x8 |] %16

